X: 06050
T: MARY'S KETTLE
C: Bob McQuillen 2 Aug 81
B: Bob's Note Book 6 #50
%R: jig
Z: 2021 John Chambers <jc:trillian.mit.edu>
M: 6/8
L: 1/8
K: G
E \
| DB,D DGA | BAB GEG | DEG BAB | GEE EGE |\
| DB,D DGA | BAB dBA | GEG DGA | BGG G2 :|
|: B \
| dBd ged | BAB G2E | dBd ged | Bee ede |\
| gab age | dBA GED | GBe dBG | AGG G2 :|
%%begintext align
%% With love to Mary Bryan;
%% Mary, you always did have
%% the best kettle! (P.S.- Hi Jake!)
%%endtext

%%sep 1 1 500

%%sep 1 1 500

